X: 894
T: Alexandra Park
R: reel
M: 4/4
K: Gmajor
|:d2 BG d2 BG|cdef agfe|d2 BG d2 BG|AGFG ABc^c|
d2 BG d2 BG|cdef agfe|dgfe dcBA|G2 F2 G4:|
|:A2 FD B2 GE|c2 AF d3 d|edcB cBAG|FGAF D4|
A2 FD B2 GE|c2 AF d3 d|edcB cBAG|FGAF G4:|

